dist/svgs/email.svg

<!-- Generated by IcoMoon.io -->
<svg version="1.1" xmlns="http://www.w3.org/2000/svg" width="24" height="24" viewBox="0 0 24 24">
<title>email</title>
<path d="M23 2h-22c-0.6 0-1 0.4-1 1v18c0 0.6 0.4 1 1 1h22c0.6 0 1-0.4 1-1v-18c0-0.6-0.4-1-1-1zM2 4h20v3.4l-10 5.5-10-5.5v-3.4zM2 20v-10.3l9.5 5.2c0.2 0.1 0.3 0.1 0.5 0.1s0.3 0 0.5-0.1l9.5-5.2v10.3h-20z"></path>
</svg>

<svg xmlns="http://www.w3.org/2000/svg" width="24" height="24"><path d="M23 2H1c-.6 0-1 .4-1 1v18c0 .6.4 1 1 1h22c.6 0 1-.4 1-1V3c0-.6-.4-1-1-1zM2 4h20v3.4l-10 5.5L2 7.4V4zm0 16V9.7l9.5 5.2c.2.1.3.1.5.1s.3 0 .5-.1L22 9.7V20H2z"/></svg>
